images/language-wavplayback.svg

<?xml version="1.0" encoding="UTF-8" standalone="no"?>
<svg
   xmlns:dc="http://purl.org/dc/elements/1.1/"
   xmlns:cc="http://creativecommons.org/ns#"
   xmlns:rdf="http://www.w3.org/1999/02/22-rdf-syntax-ns#"
   xmlns:svg="http://www.w3.org/2000/svg"
   xmlns="http://www.w3.org/2000/svg"
   xmlns:sodipodi="http://sodipodi.sourceforge.net/DTD/sodipodi-0.dtd"
   xmlns:inkscape="http://www.inkscape.org/namespaces/inkscape"
   width="100mm"
   height="21.673342mm"
   id="SvgGdi_output"
   version="1.1"
   sodipodi:docname="wavplayback.svg"
   inkscape:version="0.92.3 (2405546, 2018-03-11)">
  <metadata
     id="metadata38">
    <rdf:RDF>
      <cc:Work
         rdf:about="">
        <dc:format>image/svg+xml</dc:format>
        <dc:type
           rdf:resource="http://purl.org/dc/dcmitype/StillImage" />
        <dc:title></dc:title>
      </cc:Work>
    </rdf:RDF>
  </metadata>
  <sodipodi:namedview
     pagecolor="#ffffff"
     bordercolor="#666666"
     borderopacity="1"
     objecttolerance="10"
     gridtolerance="10"
     guidetolerance="10"
     inkscape:pageopacity="0"
     inkscape:pageshadow="2"
     inkscape:window-width="1920"
     inkscape:window-height="1001"
     id="namedview36"
     showgrid="false"
     units="mm"
     fit-margin-top="0"
     fit-margin-left="0"
     fit-margin-right="0"
     fit-margin-bottom="0"
     inkscape:zoom="1.1325777"
     inkscape:cx="149.6586"
     inkscape:cy="32.54443"
     inkscape:window-x="-9"
     inkscape:window-y="-9"
     inkscape:window-maximized="1"
     inkscape:current-layer="SvgGdi_output" />
  <g
     id="root_group"
     style="shape-rendering:auto"
     transform="scale(1.2585101)">
    <line
       x1="147.5"
       x2="200"
       y2="23.75"
       id="106"
       style="opacity:1;fill:none;stroke:#a9a9a9;stroke-width:1.25;stroke-linecap:butt;stroke-linejoin:miter;stroke-miterlimit:9"
       y1="23.75" />
    <line
       x1="47.5"
       x2="100"
       y2="23.75"
       id="107"
       style="opacity:1;fill:none;stroke:#a9a9a9;stroke-width:1.25;stroke-linecap:butt;stroke-linejoin:miter;stroke-miterlimit:9"
       y1="23.75" />
    <path
       inkscape:connector-curvature="0"
       style="opacity:1;fill:none;stroke:#a9a9a9;stroke-width:2;stroke-linecap:butt;stroke-linejoin:miter;stroke-miterlimit:9"
       id="108"
       transform="matrix(1.25,0,0,1.25,205,5)"
       d="M 10.158,33.2 C 3.4054,31.7591 -1.861,26.4692 -3.271,19.71" />
    <circle
       r="15"
       id="109"
       cx="15"
       cy="15"
       transform="matrix(1.25,0,0,1.25,205,5)"
       style="opacity:1;fill:#9b5bb3;stroke:none" />
    <path
       inkscape:connector-curvature="0"
       style="opacity:1;fill:#ffffff;fill-rule:evenodd;stroke:none"
       id="110"
       transform="matrix(1.25,0,0,1.25,205,5)"
       d="m 15.262,7.0869 c -0.2283,0.01 -0.45306,0.096 -0.62501,0.2467 l -4.2353,3.6596 h -3.8981 c -0.52306,0 -1.0007,0.472 -1.0033,0.9951 v 5.0248 c -0.00169,0.5258 0.47752,1.005 1.0033,1.0033 h 3.8405 l 4.2929,3.7172 c 0.57605,0.4964 1.6523,0 1.653,-0.7566 V 8.089999 c 0.0019,-0.5341 -0.49405,-1.0182 -1.028,-1.0033 z" />
    <path
       inkscape:connector-curvature="0"
       style="opacity:1;fill:#ffffff;fill-rule:evenodd;stroke:none"
       id="111"
       transform="matrix(1.25,0,0,1.25,205,5)"
       d="m 19.242,11.136 c 0.61796,0.9741 0.98242,2.1373 0.98242,3.379 0,1.2228 -0.35621,2.3677 -0.95703,3.332 -0.69427,1.173 -2.4427,0.083 -1.6953,-1.0567 0.41447,-0.6651 0.6543,-1.438 0.6543,-2.2753 0,-0.852 -0.24612,-1.6375 -0.67188,-2.3086 -0.4384,-0.6717 0.05352,-1.5601 0.85547,-1.545 0.34004,0.01 0.65354,0.1851 0.83203,0.4746 z" />
    <path
       inkscape:connector-curvature="0"
       style="opacity:1;fill:#ffffff;fill-rule:evenodd;stroke:none"
       id="112"
       transform="matrix(1.25,0,0,1.25,205,5)"
       d="m 21.92,7.5284 c 1.5368,1.9288 2.459,4.3789 2.459,7.0352 0,2.638 -0.91023,5.0731 -2.4297,6.9961 -0.82559,1.0456 -2.394,-0.1927 -1.5684,-1.2383 1.2527,-1.5854 2,-3.5784 2,-5.7578 0,-2.195 -0.75645,-4.2008 -2.0234,-5.791 -0.53829,-0.656 -0.06534,-1.642 0.7832,-1.6328 0.30552,0 0.59262,0.1467 0.7793,0.3886 z" />
    <circle
       r="3.75"
       style="opacity:1;fill:none;stroke:#a9a9a9;stroke-width:2.5;stroke-linecap:butt;stroke-linejoin:miter;stroke-miterlimit:9"
       id="113"
       cx="205"
       cy="23.75" />
    <circle
       r="3.75"
       style="opacity:1;fill:#ffffff;stroke:none"
       id="114"
       cx="205"
       cy="23.75" />
    <text
       x="205"
       y="48.75"
       id="115"
       style="font-size:13px;font-family:'Microsoft Sans Serif';opacity:1;fill:#000000;stroke:none"
       clip-path="url(#117_text_clipper)">
      <tspan
         id="119"
         dy="9.75pt">AudioPlayback</tspan>
    </text>
    <circle
       r="15"
       id="121"
       cx="15"
       cy="15"
       transform="matrix(1.25,0,0,1.25,105,5)"
       style="opacity:1;fill:#449adf;stroke:none" />
    <path
       inkscape:connector-curvature="0"
       id="122"
       transform="matrix(1.25,0,0,1.25,105,5)"
       style="opacity:1;fill:none;stroke:#ffffff;stroke-width:2;stroke-linecap:butt;stroke-linejoin:miter;stroke-miterlimit:9"
       d="M 20.824,23.115 V 7.098999 M 17.3572,17.48 v -4.7461 m -3.4668,8.4707 V 9.009602 M 10.4236,18.6248 V 11.5896 M 6.9568,16.3923 V 13.822" />
    <text
       x="105"
       y="48.75"
       id="123"
       style="font-size:13px;font-family:'Microsoft Sans Serif';opacity:1;fill:#000000;stroke:none"
       clip-path="url(#125_text_clipper)">
      <tspan
         id="127"
         dy="9.75pt">ConvertScale</tspan>
    </text>
    <path
       inkscape:connector-curvature="0"
       style="opacity:1;fill:none;stroke:#a9a9a9;stroke-width:2;stroke-linecap:butt;stroke-linejoin:miter;stroke-miterlimit:9"
       id="129"
       transform="matrix(1.25,0,0,1.25,5,5)"
       d="m 31.179,5.2 c 3.8195,5.8918 3.8024,13.482 -0.04348,19.357" />
    <circle
       r="15"
       id="130"
       cx="15"
       cy="15"
       transform="matrix(1.25,0,0,1.25,5,5)"
       style="opacity:1;fill:#5bb27e;stroke:none" />
    <path
       inkscape:connector-curvature="0"
       style="opacity:1;fill:#ffffff;fill-rule:evenodd;stroke:none"
       id="131"
       transform="matrix(1.25,0,0,1.25,5,5)"
       d="m 15.262,7.0869 c -0.2283,0.01 -0.45306,0.096 -0.62501,0.2467 l -4.2353,3.6596 h -3.8981 c -0.52306,0 -1.0007,0.472 -1.0033,0.9951 v 5.0248 c -0.00169,0.5258 0.47752,1.005 1.0033,1.0033 h 3.8405 l 4.2929,3.7172 c 0.57605,0.4964 1.6523,0 1.653,-0.7566 V 8.089999 c 0.0019,-0.5341 -0.49405,-1.0182 -1.028,-1.0033 z" />
    <path
       inkscape:connector-curvature="0"
       style="opacity:1;fill:#ffffff;fill-rule:evenodd;stroke:none"
       id="132"
       transform="matrix(1.25,0,0,1.25,5,5)"
       d="m 19.242,11.136 c 0.61796,0.9741 0.98242,2.1373 0.98242,3.379 0,1.2228 -0.35621,2.3677 -0.95703,3.332 -0.69427,1.173 -2.4427,0.083 -1.6953,-1.0567 0.41447,-0.6651 0.6543,-1.438 0.6543,-2.2753 0,-0.852 -0.24612,-1.6375 -0.67188,-2.3086 -0.4384,-0.6717 0.05352,-1.5601 0.85547,-1.545 0.34004,0.01 0.65354,0.1851 0.83203,0.4746 z" />
    <path
       inkscape:connector-curvature="0"
       style="opacity:1;fill:#ffffff;fill-rule:evenodd;stroke:none"
       id="133"
       transform="matrix(1.25,0,0,1.25,5,5)"
       d="m 21.92,7.5284 c 1.5368,1.9288 2.459,4.3789 2.459,7.0352 0,2.638 -0.91023,5.0731 -2.4297,6.9961 -0.82559,1.0456 -2.394,-0.1927 -1.5684,-1.2383 1.2527,-1.5854 2,-3.5784 2,-5.7578 0,-2.195 -0.75645,-4.2008 -2.0234,-5.791 -0.53829,-0.656 -0.06534,-1.642 0.7832,-1.6328 0.30552,0 0.59262,0.1467 0.7793,0.3886 z" />
    <circle
       r="3.75"
       style="opacity:1;fill:none;stroke:#a9a9a9;stroke-width:2.5;stroke-linecap:butt;stroke-linejoin:miter;stroke-miterlimit:9"
       id="134"
       cx="5"
       cy="23.75" />
    <circle
       r="3.75"
       style="opacity:1;fill:#ffffff;stroke:none"
       id="135"
       cx="5"
       cy="23.75" />
    <text
       x="5"
       y="48.75"
       id="136"
       style="font-size:13px;font-family:'Microsoft Sans Serif';opacity:1;fill:#000000;stroke:none"
       clip-path="url(#138_text_clipper)">
      <tspan
         id="140"
         dy="9.75pt">AudioReader</tspan>
    </text>
  </g>
  <defs
     id="clips_hatches_and_gradients">
    <clipPath
       id="117_text_clipper">
      <rect
         id="118"
         width="93.07"
         height="16.34"
         x="205"
         y="48.75" />
    </clipPath>
    <clipPath
       id="125_text_clipper">
      <rect
         id="126"
         width="84.779999"
         height="16.34"
         x="105"
         y="48.75" />
    </clipPath>
    <clipPath
       id="138_text_clipper">
      <rect
         id="139"
         width="82.559998"
         height="16.34"
         x="5"
         y="48.75" />
    </clipPath>
  </defs>
</svg>

<?xml version="1.0" standalone="yes"?><!DOCTYPE svg PUBLIC "-//W3C//DTD SVG 1.1//EN" "http://www.w3.org/Graphics/SVG/1.1/DTD/svg11.dtd"[
<!ENTITY E10 'stroke:none;opacity:1;fill:rgb(255,255,255);'><!ENTITY E3 'stroke:rgb(169,169,169);fill:none;stroke-linecap:butt;stroke-miterlimit:9;opacity:1;stroke-width:2;stroke-linejoin:miter;'><!ENTITY E9 'M 21.92 7.5284 C 23.4568 9.4572 24.379 11.9073 24.379 14.5636 24.379 17.2016 23.46877 19.6367 21.9493 21.5597 21.12371 22.6053 19.5553 21.367 20.3809 20.3214 21.6336 18.736 22.3809 16.743 22.3809 14.5636 22.3809 12.3686 21.62445 10.3628 20.3575 8.7726 19.81921 8.1166 20.29216 7.1306 21.1407 7.1398 21.44622 7.1398 21.73332 7.2865 21.92 7.5284 z '><!ENTITY E1 'stroke:rgb(169,169,169);fill:none;stroke-linecap:butt;stroke-miterlimit:9;opacity:1;stroke-width:1;stroke-linejoin:miter;'><!ENTITY E14 'matrix(1.00 0.00 0.00 1.00 84.00 4.00 ) '><!ENTITY E4 'matrix(1.00 0.00 0.00 1.00 164.00 4.00 ) '><!ENTITY E6 'M 15.262 7.0869 C 15.0337 7.0969 14.80894 7.1829 14.63699 7.3336 L 10.40169 10.9932 6.50359 10.9932 C 5.98053 10.9932 5.50289 11.4652 5.50029 11.9883 L 5.50029 17.0131 C 5.4986 17.5389 5.97781 18.0181 6.50359 18.0164 L 10.34409 18.0164 14.63699 21.7336 C 15.21304 22.23 16.28929 21.7336 16.28999 20.977 L 16.28999 8.089999 C 16.29189 7.555899 15.79594 7.071799 15.26199 7.086699 z '><!ENTITY E7 'stroke:none;fill-rule:evenodd;opacity:1;fill:rgb(255,255,255);'><!ENTITY E20 'matrix(1.00 0.00 0.00 1.00 4.00 4.00 ) '><!ENTITY E8 'M 19.242 11.136 C 19.85996 12.1101 20.22442 13.2733 20.22442 14.515 20.22442 15.7378 19.86821 16.8827 19.26739 17.847 18.57312 19.02 16.82469 17.93 17.57209 16.7903 17.98656 16.1252 18.22639 15.3523 18.22639 14.515 18.22639 13.663 17.98027 12.8775 17.55451 12.2064 17.11611 11.5347 17.60803 10.6463 18.40998 10.6614 18.75002 10.6714 19.06352 10.8465 19.24201 11.136 z '><!ENTITY E12 'matrix(1.00 0.00 0.00 1.00 0.00 0.00 ) '>
]><svg width="214.7077" height="66.65038" id="SvgGdi_output" xmlns="http://www.w3.org/2000/svg" xmlns:xlink="http://www.w3.org/1999/xlink"><rect id="background" height="100.00%" style="fill:rgb(255,255,255);" width="100.00%" y="0.00" x="0.00" /><g style="shape-rendering:auto;" id="root_group"><line y1="19.00" style="&E1;" id="168" x2="160.00" y2="19.00" x1="118.00" /><line y1="19.00" style="&E1;" id="169" x2="80.00" y2="19.00" x1="38.00" /><path style="&E3;" transform="&E4;" id="170" d="M 10.158 33.2 C 3.4054 31.7591 -1.861 26.4692 -3.271 19.71 " /><ellipse id="171" cy="15.00" cx="15.00" transform="&E4;" rx="15.00" ry="15.00" style="stroke:none;opacity:1;fill:rgb(155,91,179);" /><path d="&E6;" style="&E7;" transform="&E4;" id="172" /><path d="&E8;" style="&E7;" transform="&E4;" id="173" /><path d="&E9;" style="&E7;" transform="&E4;" id="174" /><ellipse id="175" cy="19.00" cx="164.00" rx="3.00" ry="3.00" style="&E3;" /><ellipse id="176" cy="19.00" cx="164.00" rx="3.00" ry="3.00" style="&E10;" /><text id="177" transform="&E12;" x="164.00px" y="39.00px" style="stroke:none;clip-path:url(#179_text_clipper);font-family:Microsoft Sans Serif;fill:rgb(0,0,0);font-size:8.25pt;opacity:1;"><tspan dy="8.25pt" id="181">Audio</tspan></text><text id="183" transform="&E12;" x="164.00px" y="51.45px" style="stroke:none;clip-path:url(#185_text_clipper);font-family:Microsoft Sans Serif;fill:rgb(0,0,0);font-size:8.25pt;opacity:1;"><tspan dy="8.25pt" id="187">Playback</tspan></text><ellipse id="189" cy="15.00" cx="15.00" transform="&E14;" rx="15.00" ry="15.00" style="stroke:none;opacity:1;fill:rgb(68,154,223);" /><path transform="&E14;" id="190" style="stroke:rgb(255,255,255);fill:none;stroke-linecap:butt;stroke-miterlimit:9;opacity:1;stroke-width:2;stroke-linejoin:miter;" d="M 20.824 23.115 20.824 7.098999 M 17.3572 17.48 17.3572 12.7339 M 13.8904 21.2046 13.8904 9.009602 M 10.4236 18.6248 10.4236 11.5896 M 6.9568 16.3923 6.9568 13.822 " /><text id="191" transform="&E12;" x="84.00px" y="39.00px" style="stroke:none;clip-path:url(#193_text_clipper);font-family:Microsoft Sans Serif;fill:rgb(0,0,0);font-size:8.25pt;opacity:1;"><tspan dy="8.25pt" id="195">ConvertScale</tspan></text><path style="&E3;" transform="&E20;" id="197" d="M 31.179 5.2 C 34.9985 11.0918 34.9814 18.682 31.13552 24.557 " /><ellipse id="198" cy="15.00" cx="15.00" transform="&E20;" rx="15.00" ry="15.00" style="stroke:none;opacity:1;fill:rgb(91,178,126);" /><path d="&E6;" style="&E7;" transform="&E20;" id="199" /><path d="&E8;" style="&E7;" transform="&E20;" id="200" /><path d="&E9;" style="&E7;" transform="&E20;" id="201" /><ellipse id="202" cy="19.00" cx="4.00" rx="3.00" ry="3.00" style="&E3;" /><ellipse id="203" cy="19.00" cx="4.00" rx="3.00" ry="3.00" style="&E10;" /><text id="204" transform="&E12;" x="4.00px" y="39.00px" style="stroke:none;clip-path:url(#206_text_clipper);font-family:Microsoft Sans Serif;fill:rgb(0,0,0);font-size:8.25pt;opacity:1;"><tspan dy="8.25pt" id="208">AudioReader</tspan></text></g><defs id="clips_hatches_and_gradients"><clipPath id="179_text_clipper"><rect x="164.00" y="39.00" width="49.71" height="27.65" id="180" /></clipPath><clipPath id="185_text_clipper"><rect x="164.00" y="51.45" width="49.71" height="27.65" id="186" /></clipPath><clipPath id="193_text_clipper"><rect x="84.00" y="39.00" width="71.74" height="13.83" id="194" /></clipPath><clipPath id="206_text_clipper"><rect x="4.00" y="39.00" width="69.86" height="13.83" id="207" /></clipPath></defs></svg>
